modules/hawcons-stroke/icons/icon-19-one-finger-swipe-right.svg

<?xml version="1.0" encoding="UTF-8" standalone="no"?>
<svg width="32px" height="32px" viewBox="0 0 32 32" version="1.1" xmlns="http://www.w3.org/2000/svg" xmlns:xlink="http://www.w3.org/1999/xlink" xmlns:sketch="http://www.bohemiancoding.com/sketch/ns">
    <!-- Generator: Sketch 3.0.3 (7891) - http://www.bohemiancoding.com/sketch -->
    <title>icon 19 one finger swipe right</title>
    <desc>Created with Sketch.</desc>
    <defs></defs>
    <g id="Page-1" stroke="none" stroke-width="1" fill="none" fill-rule="evenodd" sketch:type="MSPage">
        <g id="icon-19-one-finger-swipe-right" sketch:type="MSArtboardGroup" fill="#929292">
            <path d="M16.0734399,6 C15.8409382,4.85839492 14.8399453,4 13.6244203,4 C12.2437085,4 11.1244203,5.11541748 11.1244203,6.50840855 L11.1244203,15.3667868 L11.1244203,15.3667868 C9.16926196,13.5381668 6.9371827,12.1742982 5.51553361,13.5959473 C3.52827319,15.5832077 7.70175208,19.4825159 10.9652407,25.4282229 C13.2262274,29.5474856 16.5115051,31.0000003 19.6244203,31.0000003 C24.3188409,31 28.1244203,27.1944206 28.1244203,22.5 L28.1244203,16.5143168 C28.1244203,15.1335355 27.0147583,14.014191 25.6244203,14.014191 C25.0616174,14.014191 24.5422506,14.1985158 24.1244203,14.5110883 L24.1244203,14.4976267 C24.1244203,13.1182256 23.0147583,12 21.6244203,12 C20.9901312,12 20.4110134,12.2379894 19.9702378,12.6281239 C19.6193054,11.6774672 18.7069384,11 17.6244203,11 C17.0616174,11 16.5422506,11.1853054 16.1244203,11.4983653 L16.1244203,7 L23.1744193,7 L19.9244193,10.25 L20.6744193,11 L25.1744193,6.5 L20.6744193,2 L19.9244193,2.75 L23.1744193,6 L23.1744193,6 L16.0734399,6 L16.0734399,6 Z M19.6231595,29.9999999 C23.7659915,30 27.1244203,26.4147752 27.1244203,22.5 C27.1244203,22.5 27.1244203,24.8132437 27.1244203,22.5 L27.1244203,18.7491622 L27.1244203,16.5016756 C27.1244203,15.6723231 26.4586231,15 25.6244203,15 C24.7959932,15 24.1244203,15.6711894 24.1244203,16.5016756 L24.1244203,17 L23.1244203,17 L23.1244203,14.5064385 C23.1244203,13.6744555 22.4586231,13 21.6244203,13 C20.7959932,13 20.1244203,13.6715406 20.1244203,14.5064385 L20.1244203,16 L19.1244203,16 L19.1244203,13.5064385 C19.1244203,12.6744555 18.4586231,12 17.6244203,12 C16.7959932,12 16.1244203,12.6715406 16.1244203,13.5064385 L16.1244203,17 L15.1244203,17 L15.1244203,6.50524116 C15.1244203,5.67391942 14.4586231,5 13.6244203,5 C12.7959932,5 12.1244203,5.66712976 12.1244203,6.50524116 L12.1244203,17.7999878 C10.0660207,15.599567 7.35605012,13.1791206 6.24545305,14.2957153 C5.15828327,15.3887562 7.95978233,18.4007216 11.8717958,24.9830936 C13.6344162,27.9488875 15.8647052,29.9995418 19.6231595,29.9999999 L19.6231595,29.9999999 Z" id="one-finger-swipe-right" sketch:type="MSShapeGroup"></path>
        </g>
    </g>
</svg>

<svg width="32" height="32" xmlns="http://www.w3.org/2000/svg"><path d="M16.073 6a2.5 2.5 0 0 0-4.949.508v8.859c-1.955-1.829-4.187-3.193-5.608-1.771-1.988 1.987 2.186 5.887 5.45 11.832 2.26 4.12 5.546 5.572 8.658 5.572a8.5 8.5 0 0 0 8.5-8.5v-5.986c0-1.38-1.11-2.5-2.5-2.5-.562 0-1.082.185-1.5.497v-.013c0-1.38-1.11-2.498-2.5-2.498-.634 0-1.213.238-1.654.628A2.493 2.493 0 0 0 17.624 11c-.562 0-1.082.185-1.5.498V7h7.05l-3.25 3.25.75.75 4.5-4.5-4.5-4.5-.75.75L23.174 6h-7.1zm3.55 24c4.143 0 7.501-3.585 7.501-7.5 0 0 0 2.313 0 0v-5.998a1.5 1.5 0 0 0-3 0V17h-1v-2.494a1.5 1.5 0 1 0-3 0V16h-1v-2.494a1.5 1.5 0 1 0-3 0V17h-1V6.505a1.499 1.499 0 1 0-3 0V17.8c-2.058-2.2-4.768-4.62-5.879-3.504-1.087 1.093 1.715 4.105 5.627 10.687C13.634 27.95 15.865 30 19.623 30z" fill="#929292" fill-rule="evenodd"/></svg>
